src/assets/images/compare-check-1.svg

<svg width="20" height="20" viewBox="0 0 20 20" fill="none" xmlns="http://www.w3.org/2000/svg">
<path d="M8.14726 11.6703L5.6203 9.13927L4.48093 10.2746L8.14726 13.9409L18.5481 3.54009L17.4128 2.40479L8.14726 11.6703ZM13.7302 9.73744C13.7831 10.0833 13.8238 10.4048 13.8238 10.7588C13.8238 13.8107 11.3416 16.2888 8.29375 16.2888C5.24187 16.2888 2.76374 13.8066 2.76374 10.7588C2.76374 7.70692 5.24593 5.22879 8.29375 5.22879C9.70168 5.22879 10.7963 5.70082 11.8909 6.55128L13.0303 5.41191C11.6061 4.26033 10.1574 3.62554 8.29375 3.62554C4.35478 3.62147 1.15234 6.82391 1.15234 10.7588C1.15234 14.6937 4.35478 17.8961 8.28968 17.8961C12.2246 17.8961 15.427 14.6937 15.427 10.7588C15.427 9.89614 15.2724 9.22879 15.0526 8.41496L13.7302 9.73744Z" fill="white"/>
</svg>

<svg xmlns="http://www.w3.org/2000/svg" width="20" height="20" fill="none" viewBox="0 0 20 20"><path fill="#fff" d="M8.147 11.67 5.62 9.14l-1.14 1.135 3.667 3.666 10.401-10.4-1.135-1.136zm5.583-1.933c.053.346.094.668.094 1.022a5.536 5.536 0 0 1-5.53 5.53 5.536 5.536 0 0 1-5.53-5.53 5.536 5.536 0 0 1 5.53-5.53c1.408 0 2.502.472 3.597 1.322l1.14-1.14c-1.425-1.15-2.874-1.785-4.737-1.785a7.14 7.14 0 0 0-7.142 7.133c0 3.935 3.203 7.137 7.138 7.137s7.137-3.202 7.137-7.137c0-.863-.155-1.53-.374-2.344z"/></svg>
